X:1
T:Incessament suis triste
T:Incessament suis triste
T:Jacob Clemens non Papa
C:Jacob Clemens non Papa
%%score [ 1 [ 2 3 ] 4 ]
L:1/8
Q:1/4=80
M:2/2
K:F
V:1 treble nm="Superius" snm="S"
V:2 treble-8 nm="Tenor 1" snm="T 1"
V:3 treble-8 nm="Tenor 2" snm="T 2"
V:4 bass nm="Bassus" snm="B"
V:1
 z4 D4- | D4 C2 E2 |: D2 D3 EFG | AF G4 F2- | FE/D/ E2 F2 D2 | E2 D2 F3 E | D2 C2 D4- | D8 | %8
w: In-|* ces- sa-|ment suis _ _ _|tri- * st'et do-|* * * * lo- reux,|et do- lo- *|* * reux,||
w: ||de dueil _ _ _|_ _ _ et|* * * * sy tres|lan- * * *|* guis- dant,||
 z2 F2 F2 F2 | B2 A3 G G2- | G2 F2 G3 F/E/ | F2 D4 C2 | D2 E2 F2 f2- | f2 e4 d2- | d2 c4 B2- | %15
w: at- taint dung|dard tres _ gri-|* ef et * *|* do- lo-|lo- reux, at- taint|* dung dard-|* tres gri-|
w: que riens ne|puis fort _ ques-|* tre ge- * *||* mis- sant, fort|* ques- tre|* ge- *|
 B2 A4 G2- | G2 F4 E2- | E2 D4 C2 | D8- | D4 z2 D2 |1[M:2/4] C2 E2 :|2[M:2/2] D8- || D8- | D8 | %24
w: * * ef|* et do|* lo- *|reux|* com-|blé- e||||
w: ||* * mis-||||sant,|||
 z2 D4 C2 | D4 A,2 A,2 | C2 D2 E2 F2- | FE D4 C2 | D3 E F4 | z4 z2 D2 | D2 D2 G4 | F2 G3 F ED | %32
w: vi- vr'en|re- gretz me-|pen- sant mal- *||* heu- eux,-|en|re- cor- dant|voz re- * * *|
w: ||||||||
 E2 DE FG AB | c2 B4 A2 | B3 A/G/ F G2 F | G4 F4- | F4 z4 | z2 B2 B2 B2 | F2 B4 A2 | G2 F2 G2 A2- | %40
w: gardz _ _ _ _ _ _|sa- * *||vou- reux||ou- bli- er|voz faitz tant|va- * * *|
w: ||||||||
 AG G4 F2- | FEDC D4 |: E2 F2 D2 G2- | G2 F2 E2 D2 | E2 F2 GF GA | B2 A4 G2- | G2 F2 G2 F2- |1 %47
w: * * * leu-||lar- mes et pleurs|* vont de mon|cueur _ _ _ _ _|_ _ _|* ys- sant _|
w: |||||||
 FEDC D4 :|2 G2 F2 G4- || G8 |] %50
w: _ _ _ _ _|(cueur)- ys- sant.||
w: |||
V:2
 z4 z2 D2- | DE FG A2 G2 |: B2 A2 Bc d2- | d2 c2 d2 d2- | d2 c2 d2 B2 | c2 d4 c2 | B2 AG A4 | %7
w: In-|* * * * ces- sa|ment suis _ _ tri-|* st'et do- lo-||||
w: ||de dueil _ _ _|_ _ et sy|* tres lan- *||* * * guis-|
 B4 z2 d2 | d2 c2 d3 e | f3 e/d/ c4 | d2 d4 c2 | d2 A2 A2 A2 | F2 G2 A2 B2 | c4 d4 | z2 A2 d4- | %15
w: reux, at-|taint- dung dard _|gri- * * ef|et do- *|* lo- reux, et|do- * * *|lo- reux,|dung dard|
w: sant, que|riens ne puis, _|_ _ _ _|que riens ne|puis fort ques- tre|ge- * * *|mis- sant,|fort ques-|
 d2 d2 B3 c | d4 c4 | z2 F2 G3 A | B2 A2 B4 | A2 D3 EFG |1[M:2/4] A2 G2 :|2[M:2/2] B2 A2 B3 A/G/ || %22
w: * tres gri- *|* ef-|et do- *|* lo- *|reux, com- * * *|blé- e||
w: * tre ge- *|mis- sant,|fort ques- tre||||ge- * * * *|
 A4 G2 B2- | B2 A2 B4 | A6 A2 | F2 G2 A2 FG | A2 D2 A4 | B2 G2 A2 z A | A2 A2 d4- | d2 B2 c2 B2- | %30
w: ||vi- vr'en|re- * gretz pen- *|sant mal- heu-|* * reux, en-|re- cor- dant|* voz re- gardz|
w: |* mis- sant|||||||
 BA d4 c2 | d2 d4 c2 | B4 A2 f2- | fd e2 f4 | z2 d2 d2 _e2 |"^b" B2 e4 d2- | d2 c2 d2 f2 | %37
w: _ _ sa- vou-|reux, voz re-|gardz sa- *|* * vou- reux,|sans ou- bli-|er voz faitz|* va- leu- *|
w: |||||||
 e2 d2 f2 e2 | d2 f3 e c2 | de fd e2 d2- | d2 c2 d2 z d | c2 B2 A3 G/F/ |: G2 F4 G2 | A4 G4 | %44
w: |||* * reux, lar-|mes et pleurs _ _|_ de mon|cueur, vont|
w: |||||||
 z2 d2 d2 c2 | d2 f2 e2 c2 | d4 B2 d2 |1 c2 B2 A3 G/F/ :|2 d4 B4- || B8 |] %50
w: de mon cueur|vont- * * *|ys sant, lar-|mes et pleurs _ _|ys- sant||
w: ||||||
V:3
 D3 E FG AF | G2 D2 E2 G2- |: G2 F2 G3 F | EC G2 A2 D2 | A4 z2 F2 | G2 B3 A A2- | A2 G4 F2 | %7
w: In- * * * * *||* suis tri- *|* * st'et do- lo-|reux, at-|taint dung * dard|* tres gri-|
w: ||* de dueil, _|_ _ _ _ _|* et|sy tres _ lan-|* * guis-|
 G2 F2 F2 B2- | B2 A2 B2 d2- | d2 c3 B G2 | A2 B4 AG | A2 F4 E2 | D2 B2 A2 F2 | G2 A2 B4 | %14
w: ef et do- *|* lo- reux, dung|* dard * *|tres gri- * *|ef et do-|||
w: sant, que riens ne|* puis fors ques-||tre ge- * *||* mis- sant, fort|ques- tre ge-|
 A3 G F2 G2 | D4 z2 D2- | DE FG AB cA | B2 A4 G2- | G2 F2 G2 DE | FG AF G2 D2 |1[M:2/4] E2 G2- :|2 %21
w: * * * lo-|reux, et||do- * *|* lo- reux, com- *||blé- e|
w: * * * mis-|sant, ge-||* * mis-||||
[M:2/2] G2 F2 G3 F/E/ || D4 z2 G2- | G2 F2 G2 D2- | DEFD E4 | D2 D2 F2 D2 | E2 G4 F2 | GF ED E4 | %28
w: |* vi-|* vr'en re- gretz|_ _ _ _ me|pen- sant mal- *||heu- * * * reux,|
w: (mis)- * * * *|sant, *||||||
 D2 A2 A2 A2 | B2 G2 A2 B2 | G2 B4 AG | A2 B2 G4 | z2 d4 c2 | A2 B2 c4 | B8 | z2 B2 B2 B2 | %36
w: en- re- cor- dant|voz re- gards sa-||* vou- reux,|vo- *|* stre re-|gardz,|sans ou- bli-|
w: ||||||||
 F2 F2 B2 A2 | B3 A/G/ F2 B2- | Bc dB c4 | B2 A2 c2 BA | B2 G2 A2 D2 | F2 G2 D2 d2 |: c2 B2 A2 d2 | %43
w: er voz faitz tant|va- * * * leu|* * * * reux,|voz faitz tant va- *|* leu- reux, lar-|mes- et pleurs vont|de mon cueur ys|
w: |||||||
 c2 A2 B3 A | G2 B4 AG | FG AB cB AG | A4 G2 D2 |1 F2 G2 D2 d2 :|2 A4 G4- || G8 |] %50
w: * sant lar- mes|et pleurs vont _|de _ mon _ cueur _ _ _|ys- sant, lar-|mes et pleurs vont|ys- sant||
w: |||||||
V:4
 D,8 | B,,4 C,4 |: D,4 z2 B,,2 | C,2 E,2 D,3 C,/B,,/ | A,,4 D,2 D,2 | C,2 B,,C, D,E, F,2 | %6
w: In-|ces- sa-|ment suis|tri- st'et do- * *|lo- reux, at-|taint dung _ _ _ dard|
w: ||dueil et|sy tres lan- * *|guis- sant, et|sy tres _ _ _ lan-|
 G,2 E,2 D,4 | z2 B,,2 B,,2 B,,2 | F,4 B,,3 C, | D,E, F,4 E,2 |"^b""^b" D,2 B,,2 E,2 E,2 | %11
w: tres gri- ef,|at- taint dung|dard- tres _|_ _ gri- *|ef et do- lo-|
w: * guis- sant,|que riens ne|puis fors *|* * ques- *|* * tre ge-|
 D,3 C,/B,,/ A,,4 | B,,2 G,,2 D,4 | C,3 B,,/A,,/ G,,A,, B,,C, | D,E, F,G, A,2 G,2- | %15
w: reux, _ _ _|_ et do-|||
w: mis- * * *|sant, fort ques-|tre _ _ ge- * * *||
 G,2 F,2 G,2 G,,A,, | B,,C, D,E, F,G, A,F, | G,2 F,2 E,4 | D,4 G,,4 | z2 D,2 B,,4 |1[M:2/4] C,4 :|2 %21
w: * lo- reux, et _|do- * * * * * * *||lo- reux,|com- blé|de-|
w: * mis- sant, ge- *||* * mis-||||
[M:2/2] D,4 G,,2 G,2- || G,2 F,2 G,4 | D,2 D,2 B,,2 G,,2 | D,2 D,2 A,,2 A,,2 | %25
w: * * vi-|* vr'en re-|gretz me pen- sant|mal- heu- reux, me|
w: (mis)- sant, *||||
 B,,2 G,,2 D,3 C,/B,,/ | A,,2 B,,2 C,2 D,2 | B,,4 A,,4 | z2 D,2 D,2 D,2 | G,4 F,2 G,2- | %30
w: pen- sant mal- * *||heu- reux,|en- re- cor-|dant voz re-|
w: |||||
 G,F, E,D, E,4 | D,2 B,,2 C,3 B,, | G,,A,, B,,C, D,E, F,G, | A,F, G,2 F,4 | B,,4 z2 _E,2 | %35
w: * * * * gards|sa- * * *||* * * vou-|reux, san|
w: |||||
 _E,2 E,2 B,,2 B,2- | B,2 A,2 G,2 F,2 | G,3 F,/E,/ D,2 G,2 | B,3 A,/G,/ A,4 | B,,2 D,2 C,2 F,2 | %40
w: ou- bli- er *|voz- faitz tant va-||leu- * * reux,|voz faitz tant va-|
w: |||||
 G,2 E,2 D,4 | z2 G,4 F,2 |: E,2 D,4 B,,2 | C,2 D,2 G,,2 B,,2 |"^b" C,2 D,2 E,4 | D,4 C,2 E,2 | %46
w: * leu- reux,|la- mes|et pleurs vont|de mon cueur ys-|sant, de mon|cueur ys- *|
w: ||||||
 D,4 z4 |1 z2 G,4 F,2 :|2 D,4 G,,4- || G,,8 |] %50
w: sant,|lar- mes|(ys)- sant.||
w: ||||

